X:1
T:Sei stille dem Herrn
T:Sei stille dem Herrn
T:Nº 31 Arie. aus Elias
T:Felix Mendelssohn-Bartholdy 
C:Felix Mendelssohn-Bartholdy (1809-1847)
%%score 1 { ( 2 3 7 ) | ( 4 5 6 ) }
L:1/8
Q:1/4=55
M:4/4
K:C
V:1 treble nm="Alto"
V:2 treble nm="Piano"
V:3 treble 
V:7 treble 
V:4 bass 
V:5 bass 
V:6 bass 
V:1
 z2 z C E2 F D | C3 C A2 B c | G4 G2 F E | F2 F A G2 c2 | (c2 B) A (GE) F3/2 E/ | %5
w: Sei stil- le dem|Herrn und war- te auf|ihn. der wird dir|ge- ben, was dein Herz|wünscht; _ sei stil- * le dem|
 E2 z A (GE) F3/2 E/ | E2 z E (Ec) (BA) | G2 G A (GE) (DF) | (F2 E2) z c B A | G2 G A E2 (ED) | %10
w: Herrn und war- * te auf|ihn. der wird _ dir _|ge- ben, was dein _ Herz _|wünscht, _ der wird dir|ge- ben, was dein Herz _|
 C2 z E D G ^F G | c2 B3 B A G/ ^F/ | ^F3 F G E ^D E | A2 G3 G ^F E/ ^D/ | ^D2 z E ^FG Ac | %15
w: wünscht. Be- fiehl ihm dei- ne|We- ge und hof- fe auf|ihn, be- fiehl ihm dei- ne|We- ge und hof- fe auf|ihn. Steh' ab _ vom _|
 B4 z G A c | B3 B, G2 A ^F | B3 E G2 ^F3/2 E/ | E2 z2 G2 ^F3/2 E/ | E2 z C E2 F D | C3 C A2 B c | %21
w: Zorn und lass den|Grimm. Sei stil- le dem|Herrn und war- te auf|ihn, war- te auf|ihn! Sei stil- le dem|Herrn und war- te auf|
 G4 G2 F E | E2 F F _B2 (AG) | (G2 A2) d2 c B | (cE) G F E2 (D>G) | G4 z d c B | (cE) G F E2 (ED) | %27
w: ihn, der wird dir|ge- ben, was dein Herz _|wünscht, _ der wird dir|ge- * ben, was dein Herz _|wünscht, Der wird dir|ge- * ben, was dein Herz _|
 C2 z C E2 F D | G2 z C E2 F D | G3 G c4- | c4 D2 A2 | G4 D3 E | C2 z2 z4 | z8 |] %34
w: wünscht. Sei stil- le dem|Herrn, sei stil- le dem|Herrn, und war-|* te, und|war- te auf|ihn.||
V:2
 z2 z2 E2 FD | CEGC- C F2 F- | G4 [^CEG]2 [DF][^CE] | [DF][A,DF] z [DFA] z [DFG] z [CFc] | %4
 [DF]3 [CEA] B,C-[CD]B, | CG, C2 DE F>E | EG, E2- EcBA | G3 A GEDF | [DF]2 EE EcB[^FA] | %9
 G3 A E3 D | C2 z E D-[DG]^FG | c2 B3 BAG | ^F2 z F GE^DE | A2 G3 G^FE | ^D3 E [D^F][EG][FA][Gc] | %15
 [^FB]2 [B,^D][^CE] [DF][EG][FA][G=c] | B3 A GG z [A,E^F] | z EB,C [B,EG] z [A,B,^D] z | %18
 z [G,E]C[CEA] [B,EG] z [A,^D^F] z | z [E,C]G,[E,C] E2 =FD | CEGC- C F2 F- | G4 [^CEG]2 [DF][^CE] | %22
 [^CE]A,DF D-[DG][=CF][_B,E] | GCFA d2 c=B | [Ec]EGF E2 D2 | GcBc [df]2 [ce][Bd] | cEGF E3 D | %27
 C[E,G,] z2 z [Gg] [cc']2- | [cc']2 z2 z [Gg] [cc']2- | c'2 G3 F_ED | [A,CD]4 z4 | [C=E]4 D4{A_B} | %32
 c3 c cegc' | c'8 |] %34
V:3
 x4 C3 B, | x4 A2 Bc | FFED x4 | x8 | x cB x DE F>E | E2 z [EA] B,-[B,C-][A,C][B,D] | %6
 CG,C[B,D] CE[^F,^D][D^F] | EG, C4 B,2 | x G,CD CE^DD | E[=D=F][C-E][CF] x4 | x2 C3 x3 | %11
 A,^FGF E4- | EEDC B,2 x2 | ^F B,2 E C4 | x8 | x8 | ^F2 E^D EE x2 | x8 | x8 | x4 C3 B, | x4 A2 Bc | %21
 F x ED x4 | x4 _B2 AG | F2 x2 F4 | x C2 D- D C2 B, | G4 G3 F | E C2 D- DCB, x | x8 | x8 | %29
 cC [_B,C]2 [A,C]2 [A,C]2 | x8 | x2 c2 =B4 | CE-[EG][EG] [EG]2 x2 | x4 b/c'/d'/c'/- c'2 |] %34
V:4
 [C,,C,]4 [C,G,]4 | G,G,E,C, C,4 | C,3 _B,, A,,4 | D,2 C,2 =B,,2 A,,2 | G,,4 z2 [G,,,G,,]2 | %5
 C,,2 z2 z2 [G,,,G,,]2 | C,,2 z ^G,, [A,,A,]2 B,,2 | E,3 [=F,,=F,] G,,2 G,,2 | %8
 C,3 [B,,^G,] [A,,A,]=G, B,,2 | E,B,,C,F,, G,,4 | [C,,C,]2 z2 z B,[A,C][G,B,] | %11
 ^F,^D,E,=D, C,2 z2 | z2 [D,,D,]2 G,,G,[^F,A,][E,G,] | ^D,2 E,C A,4 | [B,,,B,,]4 B,,4 | %15
 B,,4 B,,4- | B,,A,,G,,^F,, E,, z [C,,C,] z | [G,,,G,,]2 z A,, B,, z B,, z | C,3 A,, B,, z B,, z | %19
 [C,,C,]4 [C,G,-]4 | G,G, _B,2 [F,A,]2 [G,=B,][A,C] | C,3 [_B,,,_B,,] [A,,,A,,]4 | %22
 [D,,D,]2 z2 G,,2 C,2 | A,2 A,2 B,2 CD | [A,C]2 [E,G,][F,A,] G,2 [F,G,]2 | E,E,D,C, B,,2 C,^G,, | %26
 A,,2 E,,[F,,A,] G,C,G,F, | E,2 [G,_B,]4 A,2 | [E,G,][E,G,] [G,_B,]4 [F,A,]2 | [E,G,]2 E,,2 F,,4 | %30
 [^F,,D,]4 z4 | [G,,G,]4 [G,,F,G,]4 | C,4 [C,,C,]2 [C,E,G,]2 | [C,E,G,]8 |] %34
V:5
 z E,2 x3 D,F, | E,2 x2 F,2 G,A, | B,G,CD x4 | x8 | x8 | x8 | x8 | x4 E,G, x2 | x8 | x4 CG,- B,2 | %10
 E,G, x6 | x6 C2- | CCB,A, x4 | x8 | z B,^F,G, A,G,F,E, | ^D,^F,A,G, A,G,F,E, | ^D,2 B,2- B,B, x2 | %17
 x8 | x8 | x6 D,F, | C,4 C,4 | B,2 C x5 | x8 | F,4 G,4 | x8 | x8 | x4 G,,4 | C,8 | C,8 | %29
 C,2 C,4 C,2 | x8 | x8 | E,G,C z z4 | x8 |] %34
V:6
 z (CG,[E,C]) x C,2 x | x8 | x8 | x8 | x8 | x8 | x8 | x8 | x8 | x6 G,F, | x8 | x8 | x8 | x8 | x8 | %15
 x8 | x8 | x8 | x8 | x5 C,2 x | E,3 C, x4 | x8 | x8 | x8 | x8 | x8 | x8 | x6 F,2 | x8 | x8 | x8 | %31
 x8 | x8 | x8 |] %34
V:7
 x8 | x8 | x8 | x8 | x8 | x8 | x8 | x8 | x8 | x8 | x8 | x8 | x8 | x8 | x8 | x8 | x8 | x8 | x8 | %19
 x8 | x8 | x D2 E2 x3 | x8 | x8 | x8 | C2 x6 | x8 | x8 | x8 | x8 | x8 | x8 | x8 | x8 |] %34

